X: 145
T: Sweet Richard
%R: reel
M: C
L: 1/8
Z: 2011,2014 John Chambers <jc:trillian.mit.edu>
B: Chas & Sam Thompson "Twenty Four Country Dances for the Year 1771", London 1771, p.73
K: G
|: DG- GF/E/ FA- AG/F/ | GB- BA/G/ AB c2 | B>cdB cABG | EAGF G[BD][dB,][gG,] :|
|: gggg ffff | eeee ddd2 | gggg ffff | eeee d2d2 |
   ece2 dBd2 | cBAG Bcd2 | BcdB cABG | EAGF G[BD][dB,][gG,] :|
% - - - - - - - - - - - - - - - - - - - - - - - - -
%%begintext align
%% The 1st Cu. cast off, Hands 4 round with the 3d Cu .|. cast
%% up, Hands 4 round with the 2d Cu :|. lead down two Cu. the
2d and 3d Cu. follow .|: cross over one Cu. Right and Left :|:
%%endtext
% - - - - - - - - - - - - - - - - - - - - - - - - -
